modules/feathericon/icons/list-task.svg

<?xml version="1.0" encoding="UTF-8"?>
<svg width="24px" height="24px" viewBox="0 0 24 24" version="1.1" xmlns="http://www.w3.org/2000/svg" xmlns:xlink="http://www.w3.org/1999/xlink">
    <!-- Generator: sketchtool 52.2 (67145) - http://www.bohemiancoding.com/sketch -->
    <title>list-task</title>
    <desc>Created with sketchtool.</desc>
    <g id="text-edit" stroke="none" stroke-width="1" fill="none" fill-rule="evenodd">
        <g id="list-task" fill="#000000">
            <path d="M9,13 L19,13 C19.5522847,13 20,13.4477153 20,14 C20,14.5522847 19.5522847,15 19,15 L9,15 C8.44771525,15 8,14.5522847 8,14 C8,13.4477153 8.44771525,13 9,13 Z M9,17 L19,17 C19.5522847,17 20,17.4477153 20,18 C20,18.5522847 19.5522847,19 19,19 L9,19 C8.44771525,19 8,18.5522847 8,18 C8,17.4477153 8.44771525,17 9,17 Z M15,9 L19,9 C19.5522847,9 20,9.44771525 20,10 C20,10.5522847 19.5522847,11 19,11 L15,11 C14.4477153,11 14,10.5522847 14,10 C14,9.44771525 14.4477153,9 15,9 Z M7.74264069,10.9142136 L4,7.17157288 L5.41421356,5.75735931 L7.74264069,8.08578644 L12.8284271,3 L14.2426407,4.41421356 L7.74264069,10.9142136 Z" id="Shape"></path>
        </g>
    </g>
</svg>

<svg width="24" height="24" viewBox="0 0 24 24" xmlns="http://www.w3.org/2000/svg"><path d="M9 13h10a1 1 0 0 1 0 2H9a1 1 0 0 1 0-2zm0 4h10a1 1 0 0 1 0 2H9a1 1 0 0 1 0-2zm6-8h4a1 1 0 0 1 0 2h-4a1 1 0 0 1 0-2zm-7.257 1.914L4 7.172l1.414-1.415 2.329 2.329L12.828 3l1.415 1.414-6.5 6.5z" fill="#000" fill-rule="evenodd"/></svg>
